static/assets/svg/human/humanClothes/female_skirt2_stickers/female_skirt2_sticker7.svg

<svg class="bottomOverlay" width="86" height="380" viewBox="202.715 584.407 86.59 380.048" xmlns="http://www.w3.org/2000/svg" xmlns:xlink="http://www.w3.org/1999/xlink"><defs><pattern id="b" width="20" height="20" patternUnits="userSpaceOnUse" viewBox="0 0 100 100"><path d="M50 11.859c0 1.602-1.7 3.079-2.564 4.327-2.66 3.842-5.07 7.649-8.333 11.058-19.945 20.83 11.308-12.611-7.212 7.371-.899.97-1.821 1.919-2.724 2.885-4.365 4.666-4.083 3.939-8.494-.962-1.314-1.46-3.079-2.83-4.647-4.006-2.115-1.586-5.398-2.032-7.212-3.846-.378-.378.877.614 1.282.961.748.641 1.472 1.311 2.244 1.924 3.31 2.628 3.178 2.05 6.089 5.128 3.617 3.823 6.465 8.454 8.494 13.301 1.492 3.565 2.393 8.171 6.891 8.814 7.086 1.012 14.003-1.961 20.673-3.846 3.035-.858 6.385-1.083 9.135-2.564 2.655-1.43 5.13-3.111 7.372-5.128.743-.669 1.398-1.399 2.083-2.084.455-.455 1.817-1.799 1.282-1.442-6.853 4.568-13.944 11.924-18.43 18.75-.627.955-2.646 3.356-2.243 4.968.125.499 1.718 5.158 1.282 5.449-4.112 2.741-14.712.801-18.91.801-1.209 0-4.127.341-5.449-.321-1.218-.609 1.801-2.168 3.045-2.724 5.827-2.604 12.355-3.572 18.59-4.647 13.063-2.253 30.007-4.687 39.903-14.584.442-.441-.489-2.161-.641-2.404-2.061-3.299-3.918-6.271-4.968-10.096-3.529-12.857-5.622-21.832-16.346-30.769C67.679 6.079 62.64.421 59.455-.641c-.795-.265-.96 1.76-1.282 2.244-1.582 2.373-4.487 3.918-4.487 7.051" stroke="#000" fill="url(#a)"/></pattern><pattern id="c" patternTransform="translate(238.503 836.254)" xlink:href="#b"/><linearGradient id="a" gradientUnits="userSpaceOnUse" x1="50.504" y1="-.665" x2="50.504" y2="74.384"><stop offset="0" stop-color="#2323f4"/><stop offset=".268" stop-color="#f40c0c"/><stop offset=".403" stop-color="#56e626"/><stop offset=".537" stop-color="#ff0"/><stop offset="1" stop-color="#a5a5a5"/></linearGradient></defs><path d="M223.018 756.348c-4.441 2.319-1.222 5.664-3.172 7.614-6.264 6.264-5.711 20.01-5.711 28.551 0 4.965-8.81 139.022-5.71 142.122 3.525 3.525 6.056-2.784 10.786-2.538 8.031.417 18.051-.349 20.937 2.538.592.591 26.33 5.236 34.897-1.268 1.062-.806 13.234-18.49 13.958-17.766.968.968-1.814-76.179 0-83.116.789-3.018-.634-6.099-.634-9.517 0-5.523-.366-12.421-3.173-15.227-6.578-6.579-4.422-24.091-10.786-30.455-1.742-1.742-1.903-10.15-1.903-10.15s-3.172-4.32-7.613-11.422" stroke="#000" fill="url(#c)"/></svg>

<svg class="bottomOverlay" width="86" height="380" viewBox="202.71499633789062 584.406982421875 86.58999633789062 380.0480041503906" preserveAspectRatio="xMidYMid meet" xmlns="http://www.w3.org/2000/svg" xmlns:xlink="http://www.w3.org/1999/xlink">
  <defs id="svgEditorDefs">
    <path id="svgEditorClosePathDefs" class="lines" fill="black" style="stroke-width: 0px; stroke: none;"/>
    <pattern id="pattern-0" x="0" y="0" width="20" height="20" patternUnits="userSpaceOnUse" viewBox="0 0 100 100">
      <path d="M 50 11.859 C 50 13.461 48.3 14.938 47.436 16.186 C 44.776 20.028 42.366 23.835 39.103 27.244 C 19.158 48.074 50.411 14.633 31.891 34.615 C 30.992 35.585 30.07 36.534 29.167 37.5 C 24.802 42.166 25.084 41.439 20.673 36.538 C 19.359 35.078 17.594 33.708 16.026 32.532 C 13.911 30.946 10.628 30.5 8.814 28.686 C 8.436 28.308 9.691 29.3 10.096 29.647 C 10.844 30.288 11.568 30.958 12.34 31.571 C 15.65 34.199 15.518 33.621 18.429 36.699 C 22.046 40.522 24.894 45.153 26.923 50 C 28.415 53.565 29.316 58.171 33.814 58.814 C 40.9 59.826 47.817 56.853 54.487 54.968 C 57.522 54.11 60.872 53.885 63.622 52.404 C 66.277 50.974 68.752 49.293 70.994 47.276 C 71.737 46.607 72.392 45.877 73.077 45.192 C 73.532 44.737 74.894 43.393 74.359 43.75 C 67.506 48.318 60.415 55.674 55.929 62.5 C 55.302 63.455 53.283 65.856 53.686 67.468 C 53.811 67.967 55.404 72.626 54.968 72.917 C 50.856 75.658 40.256 73.718 36.058 73.718 C 34.849 73.718 31.931 74.059 30.609 73.397 C 29.391 72.788 32.41 71.229 33.654 70.673 C 39.481 68.069 46.009 67.101 52.244 66.026 C 65.307 63.773 82.251 61.339 92.147 51.442 C 92.589 51.001 91.658 49.281 91.506 49.038 C 89.445 45.739 87.588 42.767 86.538 38.942 C 83.009 26.085 80.916 17.11 70.192 8.173 C 67.679 6.079 62.64 0.421 59.455 -0.641 C 58.66 -0.906 58.495 1.119 58.173 1.603 C 56.591 3.976 53.686 5.521 53.686 8.654" style="stroke: rgb(0, 0, 0); fill: url(#gradient-1);"/>
    </pattern>
    <pattern id="pattern-0-0" patternTransform="matrix(1, 0, 0, 1, 238.502655, 836.253662)" xlink:href="#pattern-0"/>
    <linearGradient id="gradient-1" gradientUnits="userSpaceOnUse" x1="50.504" y1="-0.665" x2="50.504" y2="74.384">
      <stop offset="0" style="stop-color: rgb(35, 35, 244);"/>
      <stop offset="0.268" style="stop-color: rgb(244, 12, 12);"/>
      <stop offset="0.403" style="stop-color: rgb(86, 230, 38);"/>
      <stop offset="0.537" style="stop-color: rgb(255, 255, 0);"/>
      <stop offset="1" style="stop-color: rgba(165, 165, 165, 1)"/>
    </linearGradient>
  </defs>
  <path d="M 223.018 756.348 C 218.577 758.667 221.796 762.012 219.846 763.962 C 213.582 770.226 214.135 783.972 214.135 792.513 C 214.135 797.478 205.325 931.535 208.425 934.635 C 211.95 938.16 214.481 931.851 219.211 932.097 C 227.242 932.514 237.262 931.748 240.148 934.635 C 240.74 935.226 266.478 939.871 275.045 933.367 C 276.107 932.561 288.279 914.877 289.003 915.601 C 289.971 916.569 287.189 839.422 289.003 832.485 C 289.792 829.467 288.369 826.386 288.369 822.968 C 288.369 817.445 288.003 810.547 285.196 807.741 C 278.618 801.162 280.774 783.65 274.41 777.286 C 272.668 775.544 272.507 767.136 272.507 767.136 C 272.507 767.136 269.335 762.816 264.894 755.714" style="stroke: rgb(0, 0, 0); fill: url(#pattern-0-0);"/>
</svg>
